X:80
T:O'Gallagher's Frolics
R:jig
H:See also #78
Z:id:hn-jig-80
M:6/8
K:Em
~E3 G2A|~B3 d2c|~B3 BAG|~F3 AFD|~E3 G2A|~B3 d2c|~B3 AFD|1 GED E2D:|2 GED E3:|
|:e2f gfe|g2a bge|def afd|afd afd|e2f gfe|dfe dBA|BAG FAF|1 GED E3:|2 GED E2D||
<end>
<start>
